X:1
T:Sailor's Wife, The
L:1/8
M:6/8
I:linebreak $
K:F
V:1 treble
V:1
 E |"Dm" DEF E2 D | d2 e f2 g | agf edc | "C"A/=B/cA GEC |$
 "Dm"DEF E2 D | c2 e f2 g |"Dm" afc "A"ge^c |  "Dm"d3 d2 ::$
 e | "F"fga fga | fga age | "C"ecg ecg | eeg gfe |$
 "F"fga agf | "C"efg gee | "Dm"afd "A"ge^c | "Dm"d3 d2 :|
